Adwaita++/actions/16/view-bank-account-savings.svg

<svg height="16" viewBox="0 0 16 16" width="16" xmlns="http://www.w3.org/2000/svg">
  <path d="m7 1-7 7h2v7h10v-7h2zm0 5c1.1046 0 2 .89547 2 2s-.89543 2-2 2c2.9999-.0018 3 2.400391 3 2.400391v.599609h-6v-.599609s-.0001-2.398391 3-2.400391c-1.1046 0-2-.8955-2-2s.8954-2 2-2zm7 5v2h-1l1.5 3 1.5-3h-1v-2z" fill="#474747"/>
</svg>

<svg xmlns="http://www.w3.org/2000/svg" width="16" height="16" viewBox="0 0 16 16">
 <defs>
  <style id="current-color-scheme" type="text/css">
   .ColorScheme-Text { color:#474747; } .ColorScheme-Highlight { color:#4285f4; }
  </style>
 </defs>
 <path style="fill:currentColor" class="ColorScheme-Text" d="M 7 1 L 0 8 L 2 8 L 2 15 L 12 15 L 12 8 L 14 8 L 7 1 z M 7 6 C 8.1046 6 9 6.89547 9 8 C 9 9.10453 8.10457 10 7 10 C 9.9999 9.9982 10 12.400391 10 12.400391 L 10 13 L 4 13 L 4 12.400391 C 4 12.400391 3.9999 10.002 7 10 C 5.8954 10 5 9.1045 5 8 C 5 6.8955 5.8954 6 7 6 z M 14 11 L 14 13 L 13 13 L 14.5 16 L 16 13 L 15 13 L 15 11 L 14 11 z"/>
</svg>
